!!!COM: Palestrina, Giovanni Perluigi da
!!!OPR: Missa Nigra sum
!!!OMD: Sanctus
!!!OTL: First Section
**kern	**kern	**kern	**kern	**kern
*Ibass	*Itenor	*Itenor	*Icalto	*Icant
!Bassus	!Tenor 2	!Tenor 1	!Altus	!Cantus
*clefF4	*clefGv2	*clefGv2	*clefG2	*clefG2
*k[b-]	*k[b-]	*k[b-]	*k[b-]	*k[b-]
*D:aeo	*D:aeo	*D:aeo	*D:aeo	*D:aeo
*M4/2	*M4/2	*M4/2	*M4/2	*M4/2
=1	=1	=1	=1	=1
0r	0d	0r	1r	0r
.	.	.	[1a	.
=2	=2	=2	=2	=2
0r	1d	0r	1a]	0r
.	[1c	.	1a	.
=3	=3	=3	=3	=3
0r	2c]	0r	1.g	1r
.	2G	.	.	.
.	2.B-	.	.	[1dd
.	.	.	2d	.
.	4c	.	.	.
=4	=4	=4	=4	=4
0r	2.d	0r	2.f	1dd]
.	4e	.	4g	.
.	2f	.	2a	1dd
.	2g	.	2b-	.
=5	=5	=5	=5	=5
0r	2e	0r	2g	1.cc
.	2f	.	2a	.
.	2c	.	[1g	.
.	[2e-	.	.	2g
=6	=6	=6	=6	=6
0r	4e-]	0r	2g]	2b-
.	4d	.	.	.
.	2c	.	2a	2cc
.	4B-	.	2b-	1dd
.	4c	.	.	.
.	4d	.	4a	.
.	4e	.	4g	.
=7	=7	=7	=7	=7
0r	2f	0r	2a	2cc
.	2g	.	1g	2b-
.	2.d	.	.	2a
.	.	.	2f#	[2dd
.	4c	.	.	.
=8	=8	=8	=8	=8
0G	2B-	1r	0g	2dd]
.	1c	.	.	2ee-
.	.	[1d	.	1dd
.	4B-	.	.	.
.	4A	.	.	.
=9	=9	=9	=9	=9
1G	1B-	1d]	2r	1g
.	.	.	2d	.
[1F	[1A	1d	4f	2.a
.	.	.	4g	.
.	.	.	4a	.
.	.	.	4b-	4g
=10	=10	=10	=10	=10
2F]	2A]	1.c	1cc	4a
.	.	.	.	4b-
2C	4G	.	.	2.cc
.	4F	.	.	.
[1E-	[1G	.	1g	.
.	.	.	.	4g
.	.	2G	.	[2b-
=11	=11	=11	=11	=11
1E-]	1G]	2B-	2.g	2b-]
.	.	2c	.	4a
.	.	.	4a	4g
2.D	1r	1d	2b-	2.f
.	.	.	4a	.
4E	.	.	4g	4g
=12	=12	=12	=12	=12
2F	1r	2c	4f	2a
.	.	.	4e-	.
2G	.	2B-	4d	1g
.	.	.	4c	.
1D	2r	1A	1d	.
.	[2d	.	.	2f#
=13	=13	=13	=13	=13
1G	2d]	1G	2r	1g
.	2B-	.	1g	.
1r	2c	1r	.	2r
.	2d	.	2f#	[2dd
=14	=14	=14	=14	=14
0r	2B-	1r	2g	2dd]
.	2A	.	2a	2cc#
.	4B-	2r	2.f	2dd
.	4c	.	.	.
.	4d	[2d	.	[2ff
.	4e	.	4g	.
=15	=15	=15	=15	=15
0r	4f	2d]	1a	2ff]
.	4g	.	.	.
.	1a	2c#	.	2.ee
.	.	2d	2.f	.
.	.	.	.	4dd
.	2d	[2f	.	[2dd
.	.	.	4g	.
=16	=16	=16	=16	=16
1r	1A	2f]	2a	4dd]
.	.	.	.	4cc
.	.	2e	2a	2cc
[1G	2r	2.g	1d	[1b-
.	2d	.	.	.
.	.	8f	.	.
.	.	8e	.	.
=17	=17	=17	=17	=17
2G]	2G	0d	1r	2b-]
2F#	2A	.	.	2a
2G	2B-	.	2r	1g
[2B-	2G	.	[2g	.
=18	=18	=18	=18	=18
2B-]	2d	2B-	2g]	0r
2.A	2c	2c	2f#	.
.	2.B-	1d	2g	.
4G	.	.	.	.
[2G	.	.	[2b-	.
.	4c	.	.	.
=19	=19	=19	=19	=19
2G]	2.d	0r	2b-]	2r
2F#	.	.	2.a	1dd
.	4c	.	.	.
2G	2B-	.	.	.
.	.	.	4g	.
2E-	2G	.	2g	2cc
=20	=20	=20	=20	=20
1D	2A	0r	2.f	2dd
.	2B-	.	.	1ff
.	.	.	4g	.
1C	1c	.	2a	.
.	.	.	2g	2ee-
=21	=21	=21	=21	=21
1G	0r	2r	4b-	2dd
.	.	.	4a	.
.	.	1d	4g	2b-
.	.	.	4f	.
1A	.	.	1e	[1a
.	.	2c#	.	.
=22	=22	=22	=22	=22
1D	2r	2d	2.f	0a]
.	1d	1f	.	.
.	.	.	4g	.
1r	.	.	4a	.
.	.	.	4b-	.
.	2c	2e	2cc	.
=23	=23	=23	=23	=23
0r	2d	2d	2b-	2.f
.	1f	2d	1a	.
.	.	.	.	4g
.	.	1c	.	4a
.	.	.	.	4b-
.	2e	.	[2g	2cc
=24	=24	=24	=24	=24
1r	1.d	0r	2g]	2b-
.	.	.	2f#	2a
[1G	.	.	2.g	2.b-
.	2d	.	.	.
.	.	.	8f	4a
.	.	.	8e	.
=25	=25	=25	=25	=25
2G]	2B-	1r	1d	2g
2F#	2A	.	.	2a
2G	1G	2r	2r	1dd
[2B-	.	[2d	[2g	.
=26	=26	=26	=26	=26
2B-]	0r	2d]	2g]	1r
2A	.	2c#	2f#	.
1G	.	1d	2g	2r
.	.	.	[2b-	[2dd
=27	=27	=27	=27	=27
1F	1r	1f	2b-]	2dd]
.	.	.	2a	2cc
1B-	2r	2.d	2g	2dd
.	[2d	.	2f	[2ff
.	.	4e	.	.
=28	=28	=28	=28	=28
1A	2d]	4f	1a	2ff]
.	.	4g	.	.
.	2c	2a	.	2ee
1r	2d	2f	2r	1dd
.	[2f	2d	[2a	.
=29	=29	=29	=29	=29
2r	2f]	2f	2a]	1cc
1c	2e	2g	2g	.
.	1d	1r	2a	1ff
2B-	.	.	2b-	.
=30	=30	=30	=30	=30
2c	1c	1r	2g	2ee
2A	.	.	1a	1ff
1B-	1d	2r	.	.
.	.	[2d	2g	4ee
.	.	.	.	4dd
=31	=31	=31	=31	=31
1A	0r	2d]	0a	2ff
.	.	2c#	.	2.ee
1D	.	2d	.	.
.	.	.	.	4dd
.	.	2f	.	[2dd
=32	=32	=32	=32	=32
1A	1r	2e	2r	2dd]
.	.	1f	1a	2cc#
1B-	2r	.	.	1dd
.	[2d	4e	2g	.
.	.	4d	.	.
=33	=33	=33	=33	=33
2A	2d]	2e	2a	1r
2A	2c	2f	1cc	.
1G	1d	1g	.	2r
.	.	.	2b-	[2dd
=34	=34	=34	=34	=34
1A	2f	1r	1a	2dd]
.	2e	.	.	2cc#
2.D	2.d	2r	2f	2dd
.	.	[2d	2g	[2ff
4E	8c	.	.	.
.	8B-	.	.	.
=35	=35	=35	=35	=35
4F	1A	2d]	1.a	2ff]
4G	.	.	.	.
2A	.	2c#	.	2ee
[1D	2.F	2d	.	2.dd
.	.	[2f	2a	.
.	4G	.	.	4ee
=36	=36	=36	=36	=36
2D]	[0A	2f]	1a	4ff
.	.	.	.	4dd
2C#	.	2e	.	2ee
1D	.	4d	2.f	2ff
.	.	4e	.	.
.	.	4f	.	[2dd
.	.	4d	4g	.
=37	=37	=37	=37	=37
1AA	1A]	1e	1a	2dd]
.	.	.	.	4cc
.	.	.	.	4b
1AA	1A	1e	1a	2cc#
.	.	.	.	2cc#
=38	=38	=38	=38	=38
0D	0A	0d	0f#	0dd
*-	*-	*-	*-	*-
!!!CDT: 1525/^1526/-1594/2/2
!!!OCY: Italia
!!!AGN: Mass (Parody)
!!!AST: renaissance, vocal
!!!ASW: Motet 1532 (Lhéritier)
!!!PWK: Masses, Book 5
!!!RNB: Cadence finals: G,A
!!!YOR: Le Opere Complete, v. 15, p. 89
!!!YOO: Rome, Italy: Fratelli Scalera
!!!END: 1992//
!!!EED: John Miller
!!!YEC: Copyright 2000, John Miller
!!!YEN: United States of America
!!!YEM: Rights to all derivative electronic formats reserved.
!!!YEM: Refer to licensing agreement for further details.
!!!YEM: This file must be accompanied by the licensing agreement.
!!!YEM: A copy of the licensing agreement may be found at http://www.music-cog.ohio-state.edu/HumdrumDatabases/Palestrina/license.txt
!!!EMD: converted to Humdrum by Bret Aarden
